d1
    $ juxBy 0.8 rev
    $ every 2 (rot "<1 3 2>")
    $ n "0 <0 4> [2 0] [2 3]"
    # sound "feel"
    # speed "1 0.9"
    # room (slow 4 $ range 0 0.2 saw)
    # sz 0.2

d2
    $ juxBy 0.5 rev
    $ chunk 4 ((+ speed (1 + sine)) . ply 8)
    $ note "3(3,8)"
    # sound "bass"
    # speed "<0 2 4>"
    # legato 1

d2 silence

