d1 
    $ jux (rev . (# crush (choose [5, 7, 8])) . (# gain (slow 2 $ range 0.3 0.8 saw)))
    $ slow 8
    $ n (
        scale "scriabin"
        $ off "0.25" (+"<1 2>") "0 1 2"
    )
    # s "piano_f"
    # cut (choose [1..3])
    |+ speed "-1 -0.5 1"
    # delayfeedback (slow 3 $ range 0.3 0.7 sine)
    # delaytime "0.5 <0.7 0.3> 0.125?"
    # delay (slow 4 $ range 0.2 0.5 saw)
    # pan (slow 2 $ sine)
    # gain ((* rand) $ slow 7 $ range 0.4 0.7 sine)
    # lpf (choose [2000, 300, 7000])
    # room 0.3
    # size 0.7

d2
    $ slow 4
    $ degradeBy 0.7
    $ striate' 32 (1/8)
    $ n (
        scale "scriabin"
        $ "0 3 <1 4>?"
    )
    +| sound "piano_c!3 piano_f:2/3"
    + speed "-1 0.5 -0.5?"
    # gain (slow 8 $ range 0.5 0.7 $ sine)
    # hpf (choose [200, 500, 1000])
    # hpq (slow 8 $ range 0.2 0.5 sine)

d3
    $ every 3 ((# coarse (choose [4, 16])). (# crush (choose [4, 5])))
    $ slow 4
    $ sound "cymbow?" 
    # gain (slow 4 $ range 0.2 0.6 $ sine)



d1
    $ spaceOut [1, 2.5]
    $ trunc 0.7
    $ slow 4
    $ chop 16
    $ off 0.125 ((# crush (choose [5..9])) . (# up 12))
    $ sound "ac_guitar*4"
    # n (choose [0, 1, 2, 3])
    # room 0.3
    # size 0.9
    # orbit 1
    # cutoff (slow 4 $ (* range 0.8 1.2 rand) $ range 150 1500 tri)
    # gain 0.9

d5
    $ spaceOut [1, 2]
    $ stack [
    ghost $ sound "~ gretsch:2" # gain (slow 4 $ range 0.8 1.2 sine), 
    sound "damage_bd:2?", 
    ghost $ sound "gretsch:5!4" # gain ((* range 0.5 1 rand) $ range 0.5 0.8 sine)
    ]

d3
    $ stack [
        sound "juno_rand!(3,5)",
        sound "juno_fatty_sweep/3" 
        # delaytime (rot (irand 3) "0.125 0.5 1.4 0.7") 
        # delay 0.3
        # delayfeedback 0.6
    ]
    # n (irand 12) 
    # cut (choose [1, 2])
    # gain (slow 0.5 $ range 0.5 1 sine)
    |+ note ((+ 1) $ choose [2 ,4 ,5, -10, -15])
    # room 0.1


d5
    $ juxBy 0.8 rev
    $ every 2 (rot "<1 3 2>")
    $ n "0 <0 4> [2 0] [2 3]"
    # sound "feel"
    # speed "1 0.9"
    # room (slow 4 $ range 0 0.2 saw)
    # sz 0.2


d2
    $ juxBy 0.5 rev
    $ chunk 4 ((+ speed (1 + sine)) . ply 8)
    $ note "3(3,8)"
    # sound "bass"
    # speed "<0 2 4>"
    # legato 1


d1
    $ slow 2
    $ every 2 (# coarse 4)
    $ whenmod 3 2 (0.125~>)
    $ sound "low_pulse"
    -- # note (choose [0 -2 -7])
    + gain "0.5 1" 
    -- + n "1 2 3"
    # delaytime "0.25 0.75 0.1"
    # delay (slow 2 $ range 0.1 0.5 saw)
    -- # bandq (slow 4 $ range 0.3 0.6 sine)
    -- # bandf (slow 4 $ range (choose[100, 400]) 2000 sine)
    # nudge (range 0.01 0.1 sine)


d2
    $ juxBy 0.3
(
    (# squiz 1.5)
    . (# speed "-1")
    . (stutWith 3 0.1 (# cutoff 200))
    . (# delaytime (range 0.1 0.2 tri))
    . (# gain (range 0 0.7 isaw))
)
    $ sound "piano_c/4"
    # n (choose [0, 1, 2, 5])
    # room 0.2
    # size 0.9
    # orbit 1
